; generated by Slic3r 1.2.9 on 2016-05-16 at 08:03:24

; external perimeters extrusion width = 0.40mm
; perimeters extrusion width = 0.48mm
; infill extrusion width = 0.48mm
; solid infill extrusion width = 0.48mm
; top infill extrusion width = 0.48mm

M107
M190 S60 ; set bed temperature
M104 S212 ; set temperature
G28 ; home all axes
G92 E0.0 ; reset extruder
M109 S212 ; wait for temperature to be reached
G21 ; set units to millimeters
G90 ; use absolute coordinates
M82 ; use absolute distances for extrusion
G92 E0
G1 Z0.400 F7800.000
G1 E-1.30000 F2400.00000
G92 E0
G1 X66.932 Y45.510 F7800.000
G1 E1.30000 F2400.00000
G1 X67.132 Y45.310 E1.33359 F1800.000
G1 X69.021 Y43.982 E1.60782
G1 X71.880 Y43.343 E1.95569
G1 X108.120 Y43.343 E6.25974
G1 X110.395 Y43.740 E6.53396
G1 X112.868 Y45.310 E6.88183 F1800.000
G1 X113.068 Y45.510 E6.91542
G1 X114.395 Y47.399 E7.18965
G1 X115.033 Y50.156 E7.52577
G1 X115.953 Y111.156 E14.77127
G1 X115.954 Y121.428 E15.99114
G1 X115.896 Y122.307 E16.09586
G1 X115.574 Y124.742 E16.38751
G1 X115.121 Y126.431 E16.59527
G1 X114.178 Y128.709 E16.88811
G1 X113.301 Y130.227 E17.09627
G1 X111.800 Y132.183 E17.38910
G1 X110.561 Y133.423 E17.59725
G1 X108.605 Y134.924 E17.89008
G1 X107.087 Y135.800 E18.09825
G1 X104.809 Y136.744 E18.39109
G1 X103.116 Y137.197 E18.59927
G1 X100.671 Y137.519 E18.89210
G1 X99.795 Y137.577 E18.99639
G1 X80.205 Y137.577 E21.32300
G1 X79.329 Y137.519 E21.42730
G1 X76.883 Y137.197 E21.72025
G1 X75.191 Y136.744 E21.92831
G1 X72.912 Y135.800 E22.22124
G1 X71.395 Y134.924 E22.42931
G1 X69.438 Y133.422 E22.72224
G1 X68.200 Y132.184 E22.93029
G1 X66.699 Y130.227 E23.22313
G1 X65.822 Y128.709 E23.43129
G1 X64.879 Y126.431 E23.72413
G1 X64.426 Y124.742 E23.93189
G1 X64.104 Y122.307 E24.22354
G1 X64.046 Y121.428 E24.32826
G1 X64.046 Y111.257 E25.53610
G1 X64.967 Y50.156 E32.79363
G1 X65.398 Y47.888 E33.06785
G1 X66.900 Y45.560 E33.39685
G1 E32.09685 F2400.00000
G92 E0
G1 X102.980 Y104.977 F7800.000
G1 E1.30000 F2400.00000
G1 X102.980 Y109.777 E1.87007 F1800.000
G1 X100.180 Y109.777 E2.20262
G1 X100.180 Y104.977 E2.77269
G1 X102.920 Y104.977 E3.09810
G1 X107.920 Y111.057 F7800.000
G1 X107.400 Y111.057 E3.15986 F1800.000
G1 X107.400 Y110.977 E3.16936
G1 X91.186 Y110.977 E5.09506
G1 X91.186 Y98.268 E6.60454
G1 X107.920 Y98.268 E8.59200
G1 X107.920 Y110.997 E10.10385
G1 E8.80385 F2400.00000
G92 E0
G1 X91.786 Y110.378 F7800.000
G1 X91.786 Y110.378 F7800.000
G1 X90.786 Y113.310 F7800.000
G1 E1.30000 F2400.00000
G1 X95.722 Y113.312 E1.88627 F1800.000
G1 X95.926 Y113.325 E1.91058
G1 X96.136 Y113.374 E1.93608
G1 X97.488 Y113.554 E2.09810
G1 X99.201 Y114.264 E2.31840
G1 X100.617 Y115.347 E2.53006
G1 X100.719 Y115.449 E2.54727
G1 X101.802 Y116.865 E2.75893
G1 X102.486 Y118.510 E2.97059
G1 X102.524 Y118.650 E2.98780
G1 X102.757 Y120.444 E3.20267
G1 X102.757 Y121.381 E3.31388
G1 X102.653 Y122.183 E3.40998
G1 X102.358 Y122.897 E3.50173
G1 X101.887 Y123.510 E3.59348
G1 X101.275 Y123.980 E3.68524
G1 X100.561 Y124.276 E3.77698
G1 X99.795 Y124.377 E3.86873
G1 X99.029 Y124.276 E3.96048
G1 X98.315 Y123.980 E4.05222
G1 X97.703 Y123.510 E4.14397
G1 X97.232 Y122.897 E4.23573
G1 X96.937 Y122.183 E4.32747
G1 X96.730 Y120.652 E4.51105
G1 X96.434 Y119.938 E4.60279
G1 X96.010 Y119.381 E4.68590
G1 X95.908 Y119.279 E4.70311
G1 X95.351 Y118.855 E4.78622
G1 X94.638 Y118.559 E4.87797
G1 X93.944 Y118.465 E4.96107
G1 X93.799 Y118.465 E4.97829
G1 X93.106 Y118.559 E5.06139
G1 X92.392 Y118.855 E5.15314
G1 X91.779 Y119.325 E5.24489
G1 X91.351 Y119.879 E5.32799
G1 X91.279 Y120.004 E5.34521
G1 X91.039 Y120.583 E5.41967
G1 X91.001 Y120.723 E5.43688
G1 X90.912 Y121.427 E5.52110
G1 X91.215 Y123.716 E5.79536
G1 X92.102 Y125.859 E6.07078
G1 X93.514 Y127.698 E6.34617
G1 X95.353 Y129.110 E6.62151
G1 X97.429 Y129.970 E6.88832
G1 X97.568 Y130.009 E6.90550
G1 X99.723 Y130.293 E7.16361
G1 X99.867 Y130.293 E7.18082
G1 X102.094 Y129.997 E7.44757
G1 X104.236 Y129.110 E7.72297
G1 X106.076 Y127.698 E7.99837
G1 X107.488 Y125.859 E8.27376
G1 X108.375 Y123.716 E8.54918
G1 X108.678 Y121.417 E8.82456
G1 X108.680 Y111.257 E10.03122
G1 E8.73122 F2400.00000
G92 E0
G1 X107.320 Y110.378 F7800.000
G1 X105.450 Y108.507 F7800.000
G1 X103.580 Y110.377 F7800.000
G1 X103.580 Y110.377 F7800.000
G1 X103.337 Y110.377 F7800.000
G1 E1.30000 F2400.00000
G1 X99.823 Y110.377 E2.18488 F1800.000
G1 X99.744 Y108.971 F7800.000
G1 X91.621 Y100.847 E3.58858 F1800.000
G1 X91.621 Y101.886 E3.71555
G1 X99.387 Y109.653 E5.05755
G1 X99.238 Y110.542 E5.16775
G1 X91.621 Y102.925 E6.48388
G1 X91.621 Y103.965 E6.61084
G1 X98.199 Y110.542 E7.74743
G1 X97.160 Y110.542 E7.87439
G1 X91.621 Y105.004 E8.83142
G1 X91.621 Y106.043 E8.95838
G1 X96.120 Y110.542 E9.73586
G1 X95.081 Y110.542 E9.86282
G1 X91.621 Y107.082 E10.46075
G1 X91.621 Y108.121 E10.58771
G1 X94.042 Y110.542 E11.00608
G1 X93.003 Y110.542 E11.13304
G1 X91.621 Y109.160 E11.37186
G1 X91.621 Y110.199 E11.49883
G1 X91.964 Y110.542 E11.55809
G1 X99.744 Y107.932 F7800.000
G1 X91.621 Y99.808 E12.96179 F1800.000
G1 X91.621 Y98.769 E13.08876
G1 X99.744 Y106.892 E14.49246
G1 X99.744 Y105.853 E14.61942
G1 X92.594 Y98.703 E15.85496
G1 X93.633 Y98.703 E15.98192
G1 X99.744 Y104.814 E17.03791
G1 X100.511 Y104.542 F7800.000
G1 X94.673 Y98.703 E18.04684 F1800.000
G1 X95.712 Y98.703 E18.17381
G1 X101.550 Y104.542 E19.18274
G1 X102.589 Y104.542 E19.30970
G1 X96.751 Y98.703 E20.31864
G1 X107.484 Y99.046 F7800.000
G1 X107.141 Y98.703 E20.37791 F1800.000
G1 X106.102 Y98.703 E20.50487
G1 X107.484 Y100.085 E20.74369
G1 X107.484 Y101.124 E20.87065
G1 X105.063 Y98.703 E21.28903
G1 X104.024 Y98.703 E21.41599
G1 X107.484 Y102.163 E22.01392
G1 X107.484 Y103.203 E22.14088
G1 X102.985 Y98.703 E22.91836
G1 X101.946 Y98.703 E23.04532
G1 X107.484 Y104.242 E24.00235
G1 X107.484 Y105.281 E24.12932
G1 X100.907 Y98.703 E25.26590
G1 X99.868 Y98.703 E25.39287
G1 X107.484 Y106.320 E26.70900
G1 X107.484 Y107.359 E26.83597
G1 X98.829 Y98.703 E28.33166
G1 X97.790 Y98.703 E28.45862
G1 X107.484 Y108.398 E30.13386
G1 X107.484 Y109.437 E30.26082
G1 X103.416 Y105.368 E30.96394
G1 X103.416 Y106.407 E31.09090
G1 X107.484 Y110.476 E31.79402
G1 X106.511 Y110.542 E31.91320
G1 X103.416 Y107.446 E32.44815
G1 X103.416 Y108.485 E32.57511
G1 X105.472 Y110.542 E32.93050
G1 X104.433 Y110.542 E33.05746
G1 X103.773 Y109.881 E33.17160
G1 E31.87160 F2400.00000
G92 E0
G1 X96.526 Y97.868 F7800.000
G1 X90.786 Y97.127 F7800.000
G1 X90.000 Y96.387 F7800.000
G1 X90.000 Y96.387 F7800.000
G1 X89.214 Y96.387 F7800.000
G1 X88.814 Y95.987 F7800.000
G1 E1.30000 F2400.00000
G1 X72.080 Y95.987 E3.28746 F1800.000
G1 X72.080 Y67.768 E6.63896
G1 X88.814 Y67.768 E8.62642
G1 X88.814 Y95.927 E11.97079
G1 X72.515 Y95.209 F7800.000
G1 X72.858 Y95.552 E12.02854 F1800.000
G1 X73.871 Y95.552 E12.14910
G1 X72.515 Y94.196 E12.37734
G1 X72.515 Y93.184 E12.49789
G1 X74.884 Y95.552 E12.89663
G1 X75.896 Y95.552 E13.01718
G1 X72.515 Y92.171 E13.58641
G1 X72.515 Y91.159 E13.70696
G1 X76.909 Y95.552 E14.44668
G1 X77.921 Y95.552 E14.56723
G1 X72.515 Y90.146 E15.47744
G1 X72.515 Y89.134 E15.59800
G1 X78.934 Y95.552 E16.67870
G1 X79.946 Y95.552 E16.79925
G1 X72.515 Y88.121 E18.05044
G1 X72.515 Y87.109 E18.17100
G1 X80.959 Y95.552 E19.59268
G1 X81.971 Y95.552 E19.71323
G1 X72.515 Y86.096 E21.30540
G1 X72.515 Y85.084 E21.42596
G1 X82.984 Y95.552 E23.18862
G1 X83.996 Y95.552 E23.30918
G1 X72.515 Y84.071 E25.24233
G1 X72.515 Y83.059 E25.36289
G1 X85.009 Y95.552 E27.46653
G1 X86.021 Y95.552 E27.58709
G1 X72.515 Y82.046 E29.86122
G1 X72.515 Y81.033 E29.98178
G1 X87.034 Y95.552 E32.42640
G1 X88.046 Y95.552 E32.54696
G1 X72.515 Y80.021 E35.16208
G1 X72.515 Y79.008 E35.28263
G1 X88.379 Y94.872 E37.95374
G1 X88.379 Y93.859 E38.07430
G1 X72.515 Y77.996 E40.74541
G1 X72.515 Y76.983 E40.86596
G1 X88.379 Y92.847 E43.53707
G1 X88.379 Y91.834 E43.65763
G1 X72.515 Y75.971 E46.32874
G1 X72.515 Y74.958 E46.44929
G1 X88.379 Y90.822 E49.12040
G1 X88.379 Y89.809 E49.24096
G1 X72.515 Y73.946 E51.91207
G1 X72.515 Y72.933 E52.03262
G1 X88.379 Y88.797 E54.70373
G1 X88.379 Y87.784 E54.82429
G1 X72.515 Y71.921 E57.49540
G1 X72.515 Y70.908 E57.61595
G1 X88.379 Y86.772 E60.28706
G1 X88.379 Y85.759 E60.40762
G1 X72.515 Y69.896 E63.07873
G1 X72.515 Y68.883 E63.19928
G1 X88.379 Y84.747 E65.87039
G1 X88.379 Y83.734 E65.99095
G1 X72.848 Y68.203 E68.60607
G1 X73.861 Y68.203 E68.72662
G1 X88.379 Y82.722 E71.17125
G1 X88.379 Y81.709 E71.29181
G1 X74.873 Y68.203 E73.56594
G1 X75.886 Y68.203 E73.68650
G1 X88.379 Y80.696 E75.79014
G1 X88.379 Y79.684 E75.91070
G1 X76.898 Y68.203 E77.84385
G1 X77.911 Y68.203 E77.96441
G1 X88.379 Y78.671 E79.72707
G1 X88.379 Y77.659 E79.84762
G1 X78.923 Y68.203 E81.43980
G1 X79.936 Y68.203 E81.56035
G1 X88.379 Y76.646 E82.98203
G1 X88.379 Y75.634 E83.10259
G1 X80.948 Y68.203 E84.35378
G1 X81.961 Y68.203 E84.47433
G1 X88.379 Y74.621 E85.55503
G1 X88.379 Y73.609 E85.67559
G1 X82.973 Y68.203 E86.58580
G1 X83.986 Y68.203 E86.70635
G1 X88.379 Y72.596 E87.44607
G1 X88.379 Y71.584 E87.56663
G1 X84.998 Y68.203 E88.13585
G1 X86.011 Y68.203 E88.25641
G1 X88.379 Y70.571 E88.65514
G1 X88.379 Y69.559 E88.77570
G1 X87.023 Y68.203 E89.00394
G1 X88.036 Y68.203 E89.12450
G1 X88.379 Y68.546 E89.18225
G1 E87.88225 F2400.00000
G92 E0
G1 X89.214 Y96.387 F7800.000
G1 X90.000 Y97.127 F7800.000
G1 X90.000 Y97.868 F7800.000
G1 X90.000 Y101.294 F7800.000
G1 X89.214 Y101.294 F7800.000
G1 X79.820 Y104.977 F7800.000
G1 E1.30000 F2400.00000
G1 X79.820 Y109.777 E1.87007 F1800.000
G1 X77.020 Y109.777 E2.20262
G1 X77.020 Y104.977 E2.77269
G1 X79.760 Y104.977 E3.09810
G1 E1.79810 F2400.00000
G92 E0
G1 X76.420 Y110.377 F7800.000
G1 X76.420 Y110.377 F7800.000
G1 X74.550 Y108.507 F7800.000
G1 X72.680 Y110.378 F7800.000
G1 X72.080 Y111.057 F7800.000
G1 E1.30000 F2400.00000
G1 X72.080 Y98.268 E2.81898 F1800.000
G1 X88.814 Y98.268 E4.80644
G1 X88.814 Y110.977 E6.31592
G1 X72.600 Y110.977 E8.24161
G1 X72.600 Y111.057 E8.25112
G1 X72.140 Y111.057 E8.30575
G1 E7.00575 F2400.00000
G92 E0
G1 X88.214 Y110.378 F7800.000
G1 X88.214 Y110.378 F7800.000
G1 X89.214 Y113.310 F7800.000
G1 E1.30000 F2400.00000
G1 X84.278 Y113.312 E1.88627 F1800.000
G1 X84.074 Y113.325 E1.91058
G1 X83.864 Y113.374 E1.93608
G1 X82.512 Y113.554 E2.09810
G1 X80.799 Y114.264 E2.31840
G1 X79.383 Y115.347 E2.53006
G1 X79.281 Y115.449 E2.54727
G1 X78.198 Y116.865 E2.75893
G1 X77.514 Y118.510 E2.97059
G1 X77.476 Y118.650 E2.98780
G1 X77.243 Y120.444 E3.20266
G1 X77.243 Y121.381 E3.31388
G1 X77.347 Y122.183 E3.40998
G1 X77.642 Y122.897 E3.50173
G1 X78.112 Y123.510 E3.59348
G1 X78.725 Y123.980 E3.68524
G1 X79.439 Y124.276 E3.77698
G1 X80.205 Y124.377 E3.86873
G1 X80.971 Y124.276 E3.96048
G1 X81.685 Y123.980 E4.05222
G1 X82.297 Y123.510 E4.14397
G1 X82.768 Y122.897 E4.23573
G1 X83.063 Y122.183 E4.32747
G1 X83.270 Y120.652 E4.51105
G1 X83.566 Y119.938 E4.60279
G1 X83.990 Y119.381 E4.68590
G1 X84.092 Y119.279 E4.70311
G1 X84.649 Y118.855 E4.78622
G1 X85.362 Y118.559 E4.87797
G1 X86.056 Y118.465 E4.96107
G1 X86.201 Y118.465 E4.97829
G1 X86.894 Y118.559 E5.06139
G1 X87.602 Y118.852 E5.15242
G1 X88.221 Y119.325 E5.24494
G1 X88.649 Y119.879 E5.32798
G1 X88.721 Y120.004 E5.34519
G1 X88.961 Y120.583 E5.41965
G1 X88.999 Y120.723 E5.43687
G1 X89.088 Y121.427 E5.52109
G1 X88.785 Y123.716 E5.79535
G1 X87.898 Y125.859 E6.07076
G1 X86.486 Y127.698 E6.34616
G1 X84.646 Y129.110 E6.62155
G1 X82.572 Y129.972 E6.88831
G1 X82.432 Y130.009 E6.90552
G1 X80.277 Y130.293 E7.16363
G1 X80.133 Y130.293 E7.18084
G1 X77.923 Y130.001 E7.44554
G1 X75.763 Y129.110 E7.72301
G1 X73.924 Y127.698 E7.99835
G1 X72.512 Y125.859 E8.27374
G1 X71.625 Y123.716 E8.54916
G1 X71.322 Y121.417 E8.82454
G1 X71.320 Y111.257 E10.03120
G1 E8.73120 F2400.00000
G92 E0
G1 X72.680 Y110.378 F7800.000
G1 X74.550 Y108.507 F7800.000
G1 X76.420 Y110.377 F7800.000
G1 X76.420 Y110.377 F7800.000
G1 X76.663 Y110.377 F7800.000
G1 E1.30000 F2400.00000
G1 X80.177 Y110.377 E2.18488 F1800.000
G1 X80.613 Y109.983 F7800.000
G1 X81.171 Y110.542 E2.28140 F1800.000
G1 X82.210 Y110.542 E2.40836
G1 X80.256 Y108.587 E2.74613
G1 X80.256 Y107.548 E2.87309
G1 X83.249 Y110.542 E3.39041
G1 X84.288 Y110.542 E3.51738
G1 X80.256 Y106.509 E4.21425
G1 X80.256 Y105.470 E4.34122
G1 X85.327 Y110.542 E5.21764
G1 X86.367 Y110.542 E5.34461
G1 X74.528 Y98.703 E7.39033
G1 X75.567 Y98.703 E7.51730
G1 X87.406 Y110.542 E9.56302
G1 X88.379 Y110.476 E9.68221
G1 X76.606 Y98.703 E11.71656
G1 X77.645 Y98.703 E11.84352
G1 X88.379 Y109.437 E13.69831
G1 X88.379 Y108.398 E13.82527
G1 X78.684 Y98.703 E15.50051
G1 X79.723 Y98.703 E15.62748
G1 X88.379 Y107.359 E17.12316
G1 X88.379 Y106.320 E17.25013
G1 X80.762 Y98.703 E18.56626
G1 X81.801 Y98.703 E18.69323
G1 X88.379 Y105.281 E19.82981
G1 X88.379 Y104.242 E19.95677
G1 X82.840 Y98.703 E20.91380
G1 X83.880 Y98.703 E21.04076
G1 X88.379 Y103.203 E21.81824
G1 X88.379 Y102.163 E21.94521
G1 X84.919 Y98.703 E22.54313
G1 X85.958 Y98.703 E22.67009
G1 X88.379 Y101.124 E23.08847
G1 X88.379 Y100.085 E23.21543
G1 X86.997 Y98.703 E23.45425
G1 X88.036 Y98.703 E23.58121
G1 X88.379 Y99.046 E23.64048
G1 X77.249 Y104.542 F7800.000
G1 X72.516 Y99.808 E24.45848 F1800.000
G1 X72.515 Y98.769 E24.58544
G1 X78.288 Y104.542 E25.58299
G1 X79.327 Y104.542 E25.70996
G1 X73.489 Y98.703 E26.71889
G1 X76.584 Y104.916 F7800.000
G1 X72.516 Y100.847 E27.42200 F1800.000
G1 X72.516 Y101.886 E27.54897
G1 X76.584 Y105.955 E28.25208
G1 X76.584 Y106.994 E28.37905
G1 X72.516 Y102.925 E29.08216
G1 X72.516 Y103.965 E29.20913
G1 X76.584 Y108.033 E29.91224
G1 X76.584 Y109.073 F7800.000
G1 X72.516 Y105.004 E30.61536 F1800.000
G1 X72.516 Y106.043 E30.74232
G1 X76.227 Y109.755 E31.38374
G1 X75.976 Y110.542 E31.48474
G1 X72.516 Y107.082 E32.08267
G1 X72.516 Y108.121 E32.20963
G1 X74.937 Y110.542 E32.62800
G1 X73.898 Y110.542 E32.75497
G1 X72.516 Y109.160 E32.99379
G1 X72.516 Y110.199 E33.12075
G1 X72.858 Y110.542 E33.18002
G1 E31.88002 F2400.00000
G92 E0
G1 X89.214 Y101.294 F7800.000
G1 X90.000 Y97.868 F7800.000
G1 X90.000 Y97.127 F7800.000
G1 X90.000 Y96.387 F7800.000
G1 X90.786 Y96.387 F7800.000
G1 X91.186 Y95.987 F7800.000
G1 E1.30000 F2400.00000
G1 X91.186 Y67.768 E4.65151 F1800.000
G1 X107.920 Y67.768 E6.63896
G1 X107.920 Y95.987 E9.99046
G1 X91.246 Y95.987 E11.97079
G1 X91.621 Y95.209 F7800.000
G1 X91.964 Y95.552 E12.02854 F1800.000
G1 X92.977 Y95.552 E12.14910
G1 X91.621 Y94.196 E12.37734
G1 X91.621 Y93.184 E12.49790
G1 X93.989 Y95.552 E12.89663
G1 X95.002 Y95.552 E13.01719
G1 X91.621 Y92.171 E13.58641
G1 X91.621 Y91.159 E13.70697
G1 X96.014 Y95.552 E14.44668
G1 X97.027 Y95.552 E14.56724
G1 X91.621 Y90.146 E15.47744
G1 X91.621 Y89.134 E15.59800
G1 X98.039 Y95.552 E16.67869
G1 X99.052 Y95.552 E16.79925
G1 X91.621 Y88.121 E18.05044
G1 X91.621 Y87.109 E18.17099
G1 X100.064 Y95.552 E19.59267
G1 X101.077 Y95.552 E19.71323
G1 X91.621 Y86.096 E21.30540
G1 X91.621 Y85.084 E21.42595
G1 X102.089 Y95.552 E23.18861
G1 X103.102 Y95.552 E23.30917
G1 X91.621 Y84.071 E25.24232
G1 X91.621 Y83.059 E25.36287
G1 X104.114 Y95.552 E27.46652
G1 X105.127 Y95.552 E27.58707
G1 X91.621 Y82.046 E29.86121
G1 X91.621 Y81.034 E29.98176
G1 X106.139 Y95.552 E32.42639
G1 X107.152 Y95.552 E32.54694
G1 X91.621 Y80.021 E35.16206
G1 X91.621 Y79.008 E35.28261
G1 X107.484 Y94.872 E37.95372
G1 X107.484 Y93.859 E38.07427
G1 X91.621 Y77.996 E40.74538
G1 X91.621 Y76.983 E40.86593
G1 X107.484 Y92.847 E43.53704
G1 X107.484 Y91.834 E43.65760
G1 X91.621 Y75.971 E46.32870
G1 X91.621 Y74.958 E46.44926
G1 X107.484 Y90.822 E49.12036
G1 X107.484 Y89.809 E49.24092
G1 X91.621 Y73.946 E51.91203
G1 X91.621 Y72.933 E52.03258
G1 X107.484 Y88.797 E54.70369
G1 X107.484 Y87.784 E54.82424
G1 X91.621 Y71.921 E57.49535
G1 X91.621 Y70.908 E57.61590
G1 X107.484 Y86.772 E60.28701
G1 X107.484 Y85.759 E60.40757
G1 X91.621 Y69.896 E63.07867
G1 X91.621 Y68.883 E63.19923
G1 X107.484 Y84.747 E65.87033
G1 X107.484 Y83.734 E65.99089
G1 X91.954 Y68.203 E68.60601
G1 X92.966 Y68.203 E68.72657
G1 X107.484 Y82.722 E71.17120
G1 X107.484 Y81.709 E71.29176
G1 X93.979 Y68.203 E73.56590
G1 X94.991 Y68.203 E73.68646
G1 X107.484 Y80.696 E75.79010
