; generated by Slic3r 1.2.9 on 2017-03-15 at 20:08:50

; external perimeters extrusion width = 0.40mm
; perimeters extrusion width = 0.48mm
; infill extrusion width = 0.48mm
; solid infill extrusion width = 0.48mm
; top infill extrusion width = 0.48mm

M190 S85 ; set bed temperature
M104 S210 ; set temperature
G28 ; home all axes
G92 E0.0 ; reset extruder
M109 S210 ; wait for temperature to be reached
G21 ; set units to millimeters
G90 ; use absolute coordinates
M83 ; use relative distances for extrusion
M106 S127.5
G1 E-0.50000 F3600.00000
G1 Z0.300 F6000.000
G1 X53.809 Y77.227 F6000.000
G1 E0.50000 F3600.00000
M204 S500
G1 X55.499 Y76.090 E0.05986 F1080.000
G1 X57.520 Y75.684 E0.06057
G1 X122.480 Y75.684 E1.90903
G1 X124.478 Y76.081 E0.05986
G1 X126.173 Y77.209 E0.05986 F1080.000
G1 X127.310 Y78.899 E0.05986
G1 X127.716 Y80.920 E0.06057
G1 X127.716 Y99.080 E0.53368
G1 X127.319 Y101.078 E0.05986
G1 X126.191 Y102.773 E0.05986
G1 X124.501 Y103.910 E0.05986
G1 X122.480 Y104.316 E0.06057
G1 X57.520 Y104.316 E1.90903
G1 X55.522 Y103.919 E0.05986
G1 X53.827 Y102.791 E0.05986
G1 X52.690 Y101.101 E0.05986
G1 X52.284 Y99.080 E0.06057
G1 X52.284 Y80.920 E0.53368
G1 X52.681 Y78.922 E0.05986
G1 X53.776 Y77.277 E0.05809
G1 E-0.50000 F3600.00000
G1 X108.320 Y97.220 F6000.000
G1 E0.50000 F3600.00000
G1 X107.659 Y97.116 E0.01968 F1080.000
G1 X107.062 Y96.812 E0.01968
G1 X106.588 Y96.338 E0.01968
G1 X106.284 Y95.741 E0.01968
G1 X106.180 Y95.080 E0.01968
G1 X106.284 Y94.419 E0.01968
G1 X106.588 Y93.822 E0.01968
G1 X107.062 Y93.348 E0.01968
G1 X107.659 Y93.044 E0.01968
G1 X108.275 Y92.947 E0.01835 F1080.000
G1 X108.978 Y93.042 E0.02083
G1 X109.578 Y93.348 E0.01980
G1 X110.052 Y93.822 E0.01968
G1 X110.356 Y94.419 E0.01968
G1 X110.460 Y95.080 E0.01968
G1 X110.356 Y95.741 E0.01968
G1 X110.052 Y96.338 E0.01968
G1 X109.578 Y96.812 E0.01968
G1 X108.981 Y97.116 E0.01968
G1 X108.379 Y97.211 E0.01792
G1 X108.320 Y96.982 F6000.000
G1 X107.732 Y96.889 E0.01749 F1080.000
G1 X107.202 Y96.619 E0.01748
G1 X106.781 Y96.198 E0.01749
G1 X106.511 Y95.668 E0.01748
G1 X106.418 Y95.080 E0.01749
G1 X106.511 Y94.492 E0.01749
G1 X106.781 Y93.962 E0.01748
G1 X107.202 Y93.541 E0.01749
G1 X107.732 Y93.271 E0.01748
G1 X108.278 Y93.185 E0.01623 F1080.000
G1 X108.906 Y93.271 E0.01864
G1 X109.438 Y93.541 E0.01753
G1 X109.859 Y93.962 E0.01749
G1 X110.129 Y94.492 E0.01748
G1 X110.222 Y95.080 E0.01749
G1 X110.129 Y95.668 E0.01749
G1 X109.859 Y96.198 E0.01748
G1 X109.438 Y96.619 E0.01749
G1 X108.908 Y96.889 E0.01748
G1 X108.379 Y96.972 E0.01572
G1 X108.102 Y97.317 F6000.000
G1 X100.203 Y95.696 F6000.000
G1 X100.196 Y95.741 E0.00137 F1080.000
G1 X99.892 Y96.338 E0.01968
G1 X99.418 Y96.812 E0.01968
G1 X98.821 Y97.116 E0.01968
G1 X98.160 Y97.220 E0.01968
G1 X97.499 Y97.116 E0.01968
G1 X96.902 Y96.812 E0.01968
G1 X96.428 Y96.338 E0.01968
G1 X96.124 Y95.741 E0.01968
G1 X96.020 Y95.080 E0.01968
G1 X96.124 Y94.419 E0.01968
G1 X96.428 Y93.822 E0.01968
G1 X96.902 Y93.348 E0.01968
G1 X97.499 Y93.044 E0.01968
G1 X98.115 Y92.947 E0.01835 F1080.000
G1 X98.818 Y93.042 E0.02083
G1 X99.418 Y93.348 E0.01980
G1 X99.892 Y93.822 E0.01968
G1 X100.196 Y94.419 E0.01968
G1 X100.300 Y95.080 E0.01968
G1 X100.212 Y95.636 E0.01655
G1 X99.970 Y95.659 F6000.000
G1 X99.699 Y96.198 E0.01774 F1080.000
G1 X99.278 Y96.619 E0.01749
G1 X98.748 Y96.889 E0.01748
G1 X98.160 Y96.982 E0.01749
G1 X97.572 Y96.889 E0.01749
G1 X97.042 Y96.619 E0.01748
G1 X96.621 Y96.198 E0.01749
G1 X96.351 Y95.668 E0.01748
G1 X96.258 Y95.080 E0.01749
G1 X96.351 Y94.492 E0.01749
G1 X96.621 Y93.962 E0.01748
G1 X97.042 Y93.541 E0.01749
G1 X97.572 Y93.271 E0.01748
G1 X98.118 Y93.185 E0.01623 F1080.000
G1 X98.746 Y93.271 E0.01864
G1 X99.278 Y93.541 E0.01753
G1 X99.699 Y93.962 E0.01749
G1 X99.969 Y94.492 E0.01748
G1 X100.062 Y95.080 E0.01749
G1 X99.980 Y95.599 E0.01545
G1 X100.223 Y95.969 F6000.000
G1 E-0.50000 F3600.00000
G1 X90.140 Y95.080 F6000.000
G1 E0.50000 F3600.00000
G1 X90.036 Y95.741 E0.01968 F1080.000
G1 X89.732 Y96.338 E0.01968
G1 X89.258 Y96.812 E0.01968
G1 X88.661 Y97.116 E0.01968
G1 X88.000 Y97.220 E0.01968
G1 X87.339 Y97.116 E0.01968
G1 X86.742 Y96.812 E0.01968
G1 X86.268 Y96.338 E0.01968
G1 X85.964 Y95.741 E0.01968
G1 X85.860 Y95.080 E0.01968
G1 X85.964 Y94.419 E0.01968
G1 X86.268 Y93.822 E0.01968
G1 X86.742 Y93.348 E0.01968
G1 X87.339 Y93.044 E0.01968
G1 X87.955 Y92.947 E0.01835 F1080.000
G1 X88.658 Y93.042 E0.02083
G1 X89.258 Y93.348 E0.01980
G1 X89.732 Y93.822 E0.01968
G1 X90.036 Y94.419 E0.01968
G1 X90.131 Y95.021 E0.01792
G1 X89.902 Y95.080 F6000.000
G1 X89.809 Y95.668 E0.01749 F1080.000
G1 X89.539 Y96.198 E0.01748
G1 X89.118 Y96.619 E0.01749
G1 X88.588 Y96.889 E0.01748
G1 X88.000 Y96.982 E0.01749
G1 X87.412 Y96.889 E0.01749
G1 X86.882 Y96.619 E0.01748
G1 X86.461 Y96.198 E0.01749
G1 X86.191 Y95.668 E0.01748
G1 X86.098 Y95.080 E0.01749
G1 X86.191 Y94.492 E0.01749
G1 X86.461 Y93.962 E0.01748
G1 X86.882 Y93.541 E0.01749
G1 X87.412 Y93.271 E0.01748
G1 X87.958 Y93.185 E0.01623 F1080.000
G1 X88.586 Y93.271 E0.01864
G1 X89.118 Y93.541 E0.01753
G1 X89.539 Y93.962 E0.01749
G1 X89.809 Y94.492 E0.01748
G1 X89.892 Y95.021 E0.01572
G1 X90.237 Y95.298 F6000.000
G1 E-0.50000 F3600.00000
G1 X79.980 Y95.080 F6000.000
G1 E0.50000 F3600.00000
G1 X79.876 Y95.741 E0.01968 F1080.000
G1 X79.572 Y96.338 E0.01968
G1 X79.098 Y96.812 E0.01968
G1 X78.501 Y97.116 E0.01968
G1 X77.840 Y97.220 E0.01968
G1 X77.179 Y97.116 E0.01968
G1 X76.582 Y96.812 E0.01968
G1 X76.108 Y96.338 E0.01968
G1 X75.804 Y95.741 E0.01968
G1 X75.700 Y95.080 E0.01968
G1 X75.804 Y94.419 E0.01968
G1 X76.108 Y93.822 E0.01968
G1 X76.582 Y93.348 E0.01968
G1 X77.179 Y93.044 E0.01968
G1 X77.795 Y92.947 E0.01835 F1080.000
G1 X78.498 Y93.042 E0.02083
G1 X79.098 Y93.348 E0.01980
G1 X79.572 Y93.822 E0.01968
G1 X79.876 Y94.419 E0.01968
G1 X79.971 Y95.021 E0.01792
G1 X79.742 Y95.080 F6000.000
G1 X79.649 Y95.668 E0.01749 F1080.000
G1 X79.379 Y96.198 E0.01748
G1 X78.958 Y96.619 E0.01749
G1 X78.428 Y96.889 E0.01748
G1 X77.840 Y96.982 E0.01749
G1 X77.252 Y96.889 E0.01749
G1 X76.722 Y96.619 E0.01748
G1 X76.301 Y96.198 E0.01749
G1 X76.031 Y95.668 E0.01748
G1 X75.938 Y95.080 E0.01749
G1 X76.031 Y94.492 E0.01749
G1 X76.301 Y93.962 E0.01748
G1 X76.722 Y93.541 E0.01749
G1 X77.252 Y93.271 E0.01748
G1 X77.798 Y93.185 E0.01623 F1080.000
G1 X78.426 Y93.271 E0.01864
G1 X78.958 Y93.541 E0.01753
G1 X79.379 Y93.962 E0.01749
G1 X79.649 Y94.492 E0.01748
G1 X79.732 Y95.021 E0.01572
G1 X80.077 Y95.298 F6000.000
G1 X78.456 Y86.963 F6000.000
G1 X77.840 Y87.060 E0.01834 F1080.000
G1 X77.179 Y86.956 E0.01968
G1 X76.582 Y86.652 E0.01968
G1 X76.108 Y86.178 E0.01968
G1 X75.804 Y85.581 E0.01968
G1 X75.700 Y84.920 E0.01968
G1 X75.804 Y84.259 E0.01968
G1 X76.108 Y83.662 E0.01968
G1 X76.582 Y83.188 E0.01968
G1 X77.179 Y82.884 E0.01968
G1 X77.795 Y82.787 E0.01835 F1080.000
G1 X78.498 Y82.882 E0.02083
G1 X79.098 Y83.188 E0.01980
G1 X79.572 Y83.662 E0.01968
G1 X79.876 Y84.259 E0.01968
G1 X79.980 Y84.920 E0.01968
G1 X79.876 Y85.581 E0.01968
G1 X79.572 Y86.178 E0.01968
G1 X79.098 Y86.652 E0.01968
G1 X78.514 Y86.949 E0.01926
G1 X78.419 Y86.730 F6000.000
G1 X77.840 Y86.822 E0.01724 F1080.000
G1 X77.252 Y86.729 E0.01749
G1 X76.722 Y86.459 E0.01749
G1 X76.301 Y86.038 E0.01749
G1 X76.031 Y85.508 E0.01749
G1 X75.938 Y84.920 E0.01749
G1 X76.031 Y84.332 E0.01749
G1 X76.301 Y83.802 E0.01749
G1 X76.722 Y83.381 E0.01749
G1 X77.252 Y83.111 E0.01749
G1 X77.798 Y83.025 E0.01623 F1080.000
G1 X78.426 Y83.110 E0.01864
G1 X78.958 Y83.381 E0.01753
G1 X79.379 Y83.802 E0.01749
G1 X79.649 Y84.332 E0.01749
G1 X79.742 Y84.920 E0.01749
G1 X79.649 Y85.508 E0.01749
G1 X79.379 Y86.038 E0.01749
G1 X78.958 Y86.459 E0.01749
G1 X78.474 Y86.705 E0.01597
G1 X78.315 Y87.116 F6000.000
G1 X85.957 Y85.536 F6000.000
G1 X85.860 Y84.920 E0.01832 F1080.000
G1 X85.964 Y84.259 E0.01968
G1 X86.268 Y83.662 E0.01968
G1 X86.742 Y83.188 E0.01968
G1 X87.339 Y82.884 E0.01968
G1 X87.955 Y82.787 E0.01835 F1080.000
G1 X88.658 Y82.882 E0.02083
G1 X89.258 Y83.188 E0.01980
G1 X89.732 Y83.662 E0.01968
G1 X90.036 Y84.259 E0.01968
G1 X90.140 Y84.920 E0.01968
G1 X90.036 Y85.581 E0.01968
G1 X89.732 Y86.178 E0.01968
G1 X89.258 Y86.652 E0.01968
G1 X88.661 Y86.956 E0.01968
G1 X88.000 Y87.060 E0.01968
G1 X87.339 Y86.956 E0.01968
G1 X86.742 Y86.652 E0.01968
G1 X86.268 Y86.178 E0.01968
G1 X85.971 Y85.594 E0.01928
G1 X86.190 Y85.499 F6000.000
G1 X86.098 Y84.920 E0.01722 F1080.000
G1 X86.191 Y84.332 E0.01749
G1 X86.461 Y83.802 E0.01749
G1 X86.882 Y83.381 E0.01749
G1 X87.412 Y83.111 E0.01749
G1 X87.958 Y83.025 E0.01623 F1080.000
G1 X88.586 Y83.110 E0.01864
G1 X89.118 Y83.381 E0.01753
G1 X89.539 Y83.802 E0.01749
G1 X89.809 Y84.332 E0.01749
G1 X89.902 Y84.920 E0.01749
G1 X89.809 Y85.508 E0.01749
G1 X89.539 Y86.038 E0.01749
G1 X89.118 Y86.459 E0.01749
G1 X88.588 Y86.729 E0.01749
G1 X88.000 Y86.822 E0.01749
G1 X87.412 Y86.729 E0.01749
G1 X86.882 Y86.459 E0.01749
G1 X86.461 Y86.038 E0.01749
G1 X86.214 Y85.553 E0.01599
G1 X85.804 Y85.395 F6000.000
G1 E-0.50000 F3600.00000
G1 X96.020 Y84.920 F6000.000
G1 E0.50000 F3600.00000
G1 X96.124 Y84.259 E0.01968 F1080.000
G1 X96.428 Y83.662 E0.01968
G1 X96.902 Y83.188 E0.01968
G1 X97.499 Y82.884 E0.01968
G1 X98.115 Y82.787 E0.01835 F1080.000
G1 X98.818 Y82.882 E0.02083
G1 X99.418 Y83.188 E0.01980
G1 X99.892 Y83.662 E0.01968
G1 X100.196 Y84.259 E0.01968
G1 X100.300 Y84.920 E0.01968
G1 X100.196 Y85.581 E0.01968
G1 X99.892 Y86.178 E0.01968
G1 X99.418 Y86.652 E0.01968
G1 X98.821 Y86.956 E0.01968
G1 X98.160 Y87.060 E0.01968
G1 X97.499 Y86.956 E0.01968
G1 X96.902 Y86.652 E0.01968
G1 X96.428 Y86.178 E0.01968
G1 X96.124 Y85.581 E0.01968
G1 X96.029 Y84.979 E0.01792
G1 X96.258 Y84.920 F6000.000
G1 X96.351 Y84.332 E0.01749 F1080.000
G1 X96.621 Y83.802 E0.01749
G1 X97.042 Y83.381 E0.01749
G1 X97.572 Y83.111 E0.01749
G1 X98.118 Y83.025 E0.01623 F1080.000
G1 X98.746 Y83.110 E0.01864
G1 X99.278 Y83.381 E0.01753
G1 X99.699 Y83.802 E0.01749
G1 X99.969 Y84.332 E0.01749
G1 X100.062 Y84.920 E0.01749
G1 X99.969 Y85.508 E0.01749
G1 X99.699 Y86.038 E0.01749
G1 X99.278 Y86.459 E0.01749
G1 X98.748 Y86.729 E0.01749
G1 X98.160 Y86.822 E0.01749
G1 X97.572 Y86.729 E0.01749
G1 X97.042 Y86.459 E0.01749
G1 X96.621 Y86.038 E0.01749
G1 X96.351 Y85.508 E0.01749
G1 X96.268 Y84.979 E0.01572
G1 X95.923 Y84.702 F6000.000
G1 E-0.50000 F3600.00000
G1 X106.180 Y84.920 F6000.000
G1 E0.50000 F3600.00000
G1 X106.284 Y84.259 E0.01968 F1080.000
G1 X106.588 Y83.662 E0.01968
G1 X107.062 Y83.188 E0.01968
G1 X107.659 Y82.884 E0.01968
G1 X108.275 Y82.787 E0.01835 F1080.000
G1 X108.978 Y82.882 E0.02083
G1 X109.578 Y83.188 E0.01980
G1 X110.052 Y83.662 E0.01968
G1 X110.356 Y84.259 E0.01968
G1 X110.460 Y84.920 E0.01968
G1 X110.356 Y85.581 E0.01968
G1 X110.052 Y86.178 E0.01968
G1 X109.578 Y86.652 E0.01968
G1 X108.981 Y86.956 E0.01968
G1 X108.320 Y87.060 E0.01968
G1 X107.659 Y86.956 E0.01968
G1 X107.062 Y86.652 E0.01968
G1 X106.588 Y86.178 E0.01968
G1 X106.284 Y85.581 E0.01968
G1 X106.189 Y84.979 E0.01792
G1 X106.418 Y84.920 F6000.000
G1 X106.511 Y84.332 E0.01749 F1080.000
G1 X106.781 Y83.802 E0.01749
G1 X107.202 Y83.381 E0.01749
G1 X107.732 Y83.111 E0.01749
G1 X108.278 Y83.025 E0.01623 F1080.000
G1 X108.906 Y83.110 E0.01864
G1 X109.438 Y83.381 E0.01753
G1 X109.859 Y83.802 E0.01749
G1 X110.129 Y84.332 E0.01749
G1 X110.222 Y84.920 E0.01749
G1 X110.129 Y85.508 E0.01749
G1 X109.859 Y86.038 E0.01749
G1 X109.438 Y86.459 E0.01749
G1 X108.908 Y86.729 E0.01749
G1 X108.320 Y86.822 E0.01749
G1 X107.732 Y86.729 E0.01749
G1 X107.202 Y86.459 E0.01749
G1 X106.781 Y86.038 E0.01749
G1 X106.511 Y85.508 E0.01749
G1 X106.428 Y84.979 E0.01572
G1 X106.083 Y84.702 F6000.000
G1 E-0.50000 F3600.00000
G1 X122.094 Y81.306 F6000.000
G1 E0.50000 F3600.00000
G1 X122.094 Y98.694 E0.51102 F1080.000
G1 X57.906 Y98.694 E1.88636
G1 X57.906 Y81.306 E0.51102
G1 X122.034 Y81.306 E1.88460
G1 X122.330 Y81.070 F6000.000
G1 X122.330 Y98.930 E0.52487 F972.000
G1 X57.670 Y98.930 E1.90021
G1 X57.670 Y81.070 E0.52487
G1 X122.270 Y81.070 E1.89845
G1 X122.130 Y81.416 F6000.000
G1 X121.964 Y81.576 F6000.000
G1 X121.824 Y81.436 E0.00583 F1080.000
G1 X121.490 Y81.436 E0.00983
G1 X121.964 Y81.910 E0.01972
G1 X121.964 Y82.243 E0.00983
G1 X121.157 Y81.436 E0.03362
G1 X120.823 Y81.436 E0.00983
G1 X121.964 Y82.577 E0.04752
G1 X121.964 Y82.911 E0.00983
G1 X120.489 Y81.436 E0.06141
G1 X120.155 Y81.436 E0.00983
G1 X121.964 Y83.245 E0.07531
G1 X121.964 Y83.579 E0.00983
G1 X119.821 Y81.436 E0.08920
G1 X119.488 Y81.436 E0.00983
G1 X121.964 Y83.912 E0.10310
G1 X121.964 Y84.246 E0.00983
G1 X119.154 Y81.436 E0.11700
G1 X118.820 Y81.436 E0.00983
G1 X121.964 Y84.580 E0.13089
G1 X121.964 Y84.914 E0.00983
G1 X118.486 Y81.436 E0.14479
G1 X118.152 Y81.436 E0.00983
G1 X121.964 Y85.248 E0.15869
G1 X121.964 Y85.581 E0.00983
G1 X117.819 Y81.436 E0.17258
G1 X117.485 Y81.436 E0.00983
G1 X121.964 Y85.915 E0.18648
G1 X121.964 Y86.249 E0.00983
G1 X117.151 Y81.436 E0.20037
G1 X116.817 Y81.436 E0.00983
G1 X121.964 Y86.583 E0.21427
G1 X121.964 Y86.916 E0.00983
G1 X116.484 Y81.436 E0.22817
G1 X116.150 Y81.436 E0.00983
G1 X121.964 Y87.250 E0.24206
G1 X121.964 Y87.584 E0.00983
G1 X115.816 Y81.436 E0.25596
G1 X115.482 Y81.436 E0.00983
G1 X121.964 Y87.918 E0.26985
G1 X121.964 Y88.252 E0.00983
G1 X115.148 Y81.436 E0.28375
G1 X114.815 Y81.436 E0.00983
G1 X121.964 Y88.585 E0.29765
G1 X121.964 Y88.919 E0.00983
G1 X114.481 Y81.436 E0.31154
G1 X114.147 Y81.436 E0.00983
G1 X121.964 Y89.253 E0.32544
G1 X121.964 Y89.587 E0.00983
G1 X113.813 Y81.436 E0.33934
G1 X113.479 Y81.436 E0.00983
G1 X121.964 Y89.921 E0.35323
G1 X121.964 Y90.254 E0.00983
G1 X113.146 Y81.436 E0.36713
G1 X112.812 Y81.436 E0.00983
G1 X121.964 Y90.588 E0.38102
G1 X121.964 Y90.922 E0.00983
G1 X112.478 Y81.436 E0.39492
G1 X112.144 Y81.436 E0.00983
G1 X121.964 Y91.256 E0.40882
G1 X121.964 Y91.589 E0.00983
G1 X111.811 Y81.436 E0.42271
G1 X111.477 Y81.436 E0.00983
G1 X121.964 Y91.923 E0.43661
G1 X121.964 Y92.257 E0.00983
G1 X111.143 Y81.436 E0.45051
G1 X110.809 Y81.436 E0.00983
G1 X121.964 Y92.591 E0.46440
G1 X121.964 Y92.925 E0.00983
G1 X110.475 Y81.436 E0.47830
G1 X110.142 Y81.436 E0.00983
G1 X121.964 Y93.258 E0.49219
G1 X121.964 Y93.592 E0.00983
G1 X109.808 Y81.436 E0.50609
G1 X109.474 Y81.436 E0.00983
G1 X121.964 Y93.926 E0.51999
G1 X121.964 Y94.260 E0.00983
G1 X109.140 Y81.436 E0.53388
G1 X108.806 Y81.436 E0.00983
G1 X121.964 Y94.594 E0.54778
G1 X121.964 Y94.927 E0.00983
G1 X108.473 Y81.436 E0.56168
G1 X108.139 Y81.436 E0.00983
G1 X121.964 Y95.261 E0.57557
G1 X121.964 Y95.595 E0.00983
G1 X110.435 Y84.066 E0.47996
G1 X110.534 Y84.499 E0.01306
G1 X121.964 Y95.929 E0.47585
G1 X121.964 Y96.263 E0.00983
G1 X110.590 Y84.888 E0.47352
G1 X110.544 Y85.177 E0.00859
G1 X121.964 Y96.596 E0.47542
G1 X121.964 Y96.930 E0.00983
G1 X110.499 Y85.465 E0.47733
G1 X110.415 Y85.714 E0.00776
G1 X121.964 Y97.264 E0.48082
G1 X121.964 Y97.598 E0.00983
G1 X110.302 Y85.936 E0.48551
G1 X110.189 Y86.157 E0.00731
G1 X121.964 Y97.931 E0.49020
G1 X121.964 Y98.265 E0.00983
G1 X110.042 Y86.343 E0.49635
G1 X109.875 Y86.510 E0.00695
G1 X121.927 Y98.562 E0.50174
G1 X121.595 Y98.564 E0.00975
G1 X109.708 Y86.677 E0.49489
G1 X109.510 Y86.813 E0.00706
G1 X121.262 Y98.564 E0.48922
G1 X120.928 Y98.564 E0.00983
G1 X109.289 Y86.926 E0.48453
G1 X109.068 Y87.038 E0.00731
G1 X120.594 Y98.564 E0.47984
G1 X120.260 Y98.564 E0.00983
G1 X108.804 Y87.108 E0.47693
G1 X108.516 Y87.154 E0.00859
G1 X119.926 Y98.564 E0.47503
G1 X119.593 Y98.564 E0.00983
G1 X108.212 Y87.184 E0.47378
G1 X107.816 Y87.121 E0.01182
G1 X119.259 Y98.564 E0.47640
G1 X118.925 Y98.564 E0.00983
G1 X107.324 Y86.963 E0.48298
G1 X106.277 Y85.916 F6000.000
G1 X101.797 Y81.436 E0.18652 F1080.000
G1 X101.463 Y81.436 E0.00983
G1 X118.591 Y98.564 E0.71308
G1 X118.258 Y98.564 E0.00983
G1 X101.129 Y81.436 E0.71308
G1 X100.796 Y81.436 E0.00983
G1 X117.924 Y98.564 E0.71308
G1 X117.590 Y98.564 E0.00983
G1 X100.462 Y81.436 E0.71308
G1 X100.128 Y81.436 E0.00983
G1 X117.256 Y98.564 E0.71308
G1 X116.922 Y98.564 E0.00983
G1 X99.794 Y81.436 E0.71308
G1 X99.460 Y81.436 E0.00983
G1 X116.589 Y98.564 E0.71308
